img/huertatipografica.svg

<svg id="Layer_1" data-name="Layer 1" xmlns="http://www.w3.org/2000/svg" viewBox="0 0 148.9 20.4"><title>huertatipografica</title><path d="M11.6,7.1V7.7h0.9a0.27,0.27,0,0,1,.3.3v4.6a2.47,2.47,0,0,0,2.7,2.5l2.2-1.3V12.9a2.77,2.77,0,0,1-.9.1c-1,0-1.4-.6-1.4-2V8.1a0.27,0.27,0,0,1,.3-0.3h2V6.5h-2a0.35,0.35,0,0,1-.3-0.4v-1H14.7ZM3.2,15H5.8V8.7c0-.3.2-0.4,0.9-0.4,1,0,1.5.6,1.5,2V15h2.6V8.8A2.55,2.55,0,0,0,8.1,6.2l-1.7,1a1.69,1.69,0,0,1-.5.2,0.25,0.25,0,0,1-.2-0.3V3H3.2V15ZM17.5,0a2.53,2.53,0,0,1,2.8,2.8V17.6a2.53,2.53,0,0,1-2.8,2.8H2.8A2.53,2.53,0,0,1,0,17.6V2.8A2.53,2.53,0,0,1,2.8,0H17.5Z"/><polygon points="32.4 15 31.2 15 31.3 12.4 31.3 11.2 29.2 11.1 27.3 11.2 27.3 12.3 27.3 15 26.2 15 26.2 12.4 26.2 6.5 27.3 6.5 27.3 10.2 29.3 10.2 31.2 10.2 31.2 6.5 32.4 6.5 32.3 12.3 32.4 15"/><path d="M41.3,11.8c0,2.1-1.1,3.4-3,3.4S35.4,14,35.4,12V6.6h1.1l-0.1,5.3c0,1.6.6,2.4,1.9,2.4s1.9-.7,1.9-2.2L40.1,6.7h1.2v5.1Z"/><polygon points="48.9 14.1 48.9 15 44.3 15 44.4 12.4 44.3 6.5 48.9 6.5 48.9 6.6 48.8 7.5 47 7.4 45.5 7.4 45.5 10.2 46.9 10.2 48.2 10.1 48.3 10.2 48.2 11.1 46.8 11.1 45.4 11.1 45.4 12.3 45.5 14.1 47 14.1 48.9 14 48.9 14.1"/><path d="M53.8,10.9a1.81,1.81,0,0,0,1.3-2,1.39,1.39,0,0,0-1.6-1.6H52.4v3.5Zm3,3.8v0.1l-1.1.3L55.5,15c-0.6-1-1.2-2.1-1.8-3.2H52.3v0.5L52.4,15H51.2l0.1-2.6-0.1-6h2.6a2.27,2.27,0,0,1,2.5,2.5,3,3,0,0,1-1.6,2.7,28.24,28.24,0,0,0,2.1,3.1"/><polygon points="63 7.4 61.6 7.4 60.9 7.4 60.8 12.3 60.9 15 59.7 15 59.8 12.4 59.7 7.4 59 7.4 57.6 7.4 57.5 7.3 57.6 6.5 63 6.5 63 6.6 63 7.4"/><path d="M66.9,7.6h0l-1.4,4.2h2.6ZM69,15l-0.2-.9-0.4-1.4H65.2L64.8,14l-0.2,1H63.5l2.8-8.6h1.3L70.2,15H69Z"/><polygon points="79 7.4 77.6 7.4 76.9 7.4 76.9 12.3 76.9 15 75.8 15 75.9 12.4 75.8 7.4 75.1 7.4 73.7 7.4 73.6 7.3 73.7 6.5 79 6.5 79.1 6.6 79 7.4"/><polygon points="81.9 15 80.7 15 80.8 12.4 80.7 6.5 81.9 6.5 81.8 12.3 81.9 15"/><path d="M87.5,11.1A1.85,1.85,0,0,0,89,9a1.55,1.55,0,0,0-1.6-1.7H86.2V11Zm0.2-4.7a2.27,2.27,0,0,1,2.5,2.5A2.84,2.84,0,0,1,87.1,12H86.2v0.3L86.3,15H85.1l0.1-2.6-0.1-6h2.6Z"/><path d="M92.9,10.7c0,2.4.8,3.5,2.4,3.5s2.4-1.1,2.4-3.4-0.8-3.5-2.4-3.5-2.4,1.1-2.4,3.4m6-.1c0,2.9-1.3,4.6-3.7,4.6-2.2,0-3.5-1.6-3.5-4.3,0-2.9,1.3-4.4,3.7-4.4s3.5,1.4,3.5,4.1"/><path d="M107.3,7L107,8.1h-0.1a3.81,3.81,0,0,0-2.2-.7c-1.8,0-2.7,1.1-2.7,3.5s0.8,3.3,2.6,3.3a5.56,5.56,0,0,0,1.5-.3V11.5l1.1-.1v1.4l0.1,1.9a7.41,7.41,0,0,1-2.7.5c-2.5,0-3.7-1.5-3.7-4.2,0-3,1.5-4.5,4-4.5a3.52,3.52,0,0,1,2.4.5"/><path d="M112.3,10.9a1.81,1.81,0,0,0,1.3-2A1.39,1.39,0,0,0,112,7.3h-1.1v3.5Zm3,3.8v0.1l-1.1.3L114,15c-0.6-1-1.2-2.1-1.8-3.2h-1.4v0.5l0.1,2.7h-1.2l0.1-2.6-0.1-6h2.6a2.27,2.27,0,0,1,2.5,2.5,3,3,0,0,1-1.6,2.7,28.24,28.24,0,0,0,2.1,3.1"/><path d="M120.1,8.3h0L118.6,12h2.7Zm-1.7-2.4c1.1-.4,2.2-0.9,3.4-1.4h0.1l0.2,0.7V5.3c-1.2.4-2.3,0.7-3.4,1.1l-0.1-.1Zm3.8,9.1-0.2-.8L121.6,13h-3.4l-0.4,1.1-0.2.9h-1.1l2.9-7.8h1.3l2.6,7.8h-1.1Z"/><polygon points="126.6 10.3 127.9 10.4 129.2 10.3 129.3 10.4 129.2 11.3 127.8 11.3 126.6 11.3 126.5 12.3 126.6 15 125.4 15 125.5 12.4 125.4 6.5 129.9 6.5 129.9 6.6 129.9 7.5 128 7.4 126.6 7.4 126.6 10.3"/><polygon points="133 15 131.8 15 131.9 12.4 131.8 6.5 133 6.5 132.9 12.3 133 15"/><path d="M141.2,7L141,8.1h-0.1a2.49,2.49,0,0,0-1.9-.7c-1.4,0-2.3,1.1-2.3,3.4s0.9,3.4,2.3,3.4a3.18,3.18,0,0,0,2-.8l0.1,0.1L141,14.6a3.94,3.94,0,0,1-2.1.6c-2.1,0-3.4-1.5-3.4-4.3s1.3-4.4,3.5-4.4a3,3,0,0,1,2.2.5"/><path d="M145.6,7.6h0l-1.4,4.2h2.6Zm2.1,7.4-0.2-.9-0.4-1.4h-3.2L143.5,14l-0.2.9h-1.1L145,6.3h1.3l2.6,8.6h-1.2V15Z"/></svg>

<?xml version="1.0" encoding="utf-8"?>
<!-- Generator: Adobe Illustrator 19.2.1, SVG Export Plug-In . SVG Version: 6.00 Build 0)  -->
<svg version="1.1" id="Layer_1" xmlns="http://www.w3.org/2000/svg" xmlns:xlink="http://www.w3.org/1999/xlink" x="0px" y="0px"
	 viewBox="0 0 148.9 20.3" style="enable-background:new 0 0 148.9 20.3;" xml:space="preserve">
<path d="M11.6,7.1v0.6h0.9c0.2,0,0.3,0.1,0.3,0.3v4.6c0,1.5,1.1,2.5,2.7,2.5l2.2-1.3v-0.9c-0.3,0.1-0.6,0.1-0.9,0.1
	c-1,0-1.4-0.6-1.4-2V8.1c0-0.2,0.1-0.3,0.3-0.3h2V6.5h-2c-0.2,0-0.3-0.2-0.3-0.4v-1h-0.7L11.6,7.1z M3.2,15h2.6V8.7
	c0-0.3,0.2-0.4,0.9-0.4c1,0,1.5,0.6,1.5,2V15h2.6V8.8c0-1.5-1.1-2.6-2.7-2.6l-1.7,1C6.2,7.3,6,7.4,5.9,7.4c-0.1,0-0.2-0.1-0.2-0.3V3
	H3.2V15z M17.5,0c1.8,0,2.8,1,2.8,2.8v14.8c0,1.8-1,2.8-2.8,2.8H2.8c-1.8,0-2.8-1-2.8-2.8V2.8C0,1,1,0,2.8,0H17.5z"/>
<polygon points="32.4,15 31.2,15 31.3,12.4 31.3,11.2 29.2,11.1 27.3,11.2 27.3,12.3 27.3,15 26.2,15 26.2,12.4 26.2,6.5 27.3,6.5 
	27.3,10.2 29.3,10.2 31.2,10.2 31.2,6.5 32.4,6.5 32.3,12.3 "/>
<path d="M41.3,11.8c0,2.1-1.1,3.4-3,3.4c-1.9,0-2.9-1.2-2.9-3.2l0-1.1l0-4.3h1.1l-0.1,5.3c0,1.6,0.6,2.4,1.9,2.4
	c1.3,0,1.9-0.7,1.9-2.2l-0.1-5.4h1.2l0,4.4L41.3,11.8z"/>
<polygon points="48.9,14.1 48.9,15 44.3,15 44.4,12.4 44.3,6.5 48.9,6.5 48.9,6.6 48.8,7.5 47,7.4 45.5,7.4 45.5,10.2 46.9,10.2 
	48.2,10.1 48.3,10.2 48.2,11.1 46.8,11.1 45.4,11.1 45.4,12.3 45.5,14.1 47,14.1 48.9,14 "/>
<path d="M53.8,10.9c0.9-0.3,1.3-0.9,1.3-2c0-1.1-0.5-1.6-1.6-1.6l-1.1,0l0,3.5L53.8,10.9z M56.8,14.7l0,0.1
	c-0.4,0.1-0.7,0.2-1.1,0.3L55.5,15c-0.6-1-1.2-2.1-1.8-3.2h-1.4v0.5l0.1,2.7h-1.2l0.1-2.6l-0.1-6l2.6,0c1.6,0,2.5,0.9,2.5,2.5
	c0,1.2-0.6,2.1-1.6,2.7C55.3,12.6,56,13.7,56.8,14.7"/>
<polygon points="63,7.4 61.6,7.4 60.9,7.4 60.8,12.3 60.9,15 59.7,15 59.8,12.4 59.7,7.4 59,7.4 57.6,7.4 57.5,7.3 57.6,6.5 63,6.5 
	63,6.6 "/>
<path d="M66.9,7.6L66.9,7.6l-1.4,4.2l1.3,0l1.3,0L66.9,7.6z M69,15l-0.2-0.9l-0.4-1.4l-1.7,0l-1.5,0l-0.4,1.3L64.6,15h-1.1l2.8-8.6
	h1.3l2.6,8.6H69z"/>
<polygon points="79,7.4 77.6,7.4 76.9,7.4 76.9,12.3 76.9,15 75.8,15 75.9,12.4 75.8,7.4 75.1,7.4 73.7,7.4 73.6,7.3 73.7,6.5 
	79,6.5 79.1,6.6 "/>
<polygon points="81.9,15 80.7,15 80.8,12.4 80.7,6.5 81.9,6.5 81.8,12.3 "/>
<path d="M87.5,11.1c1-0.2,1.5-0.9,1.5-2.1c0-1.1-0.6-1.6-1.6-1.7l-1.2,0l0,3.7L87.5,11.1z M87.7,6.4c1.6,0,2.5,0.9,2.5,2.5
	c0,1.9-1.1,3.1-3.1,3.1h-0.9v0.3l0.1,2.7h-1.2l0.1-2.6l-0.1-6L87.7,6.4z"/>
<path d="M92.9,10.7c0,2.4,0.8,3.5,2.4,3.5c1.6,0,2.4-1.1,2.4-3.4c0-2.4-0.8-3.5-2.4-3.5C93.7,7.3,92.9,8.4,92.9,10.7 M98.9,10.6
	c0,2.9-1.3,4.6-3.7,4.6c-2.2,0-3.5-1.6-3.5-4.3c0-2.9,1.3-4.4,3.7-4.4C97.7,6.4,98.9,7.9,98.9,10.6"/>
<path d="M107.3,7L107,8.1l-0.1,0c-0.8-0.5-1.4-0.7-2.2-0.7c-1.8,0-2.7,1.1-2.7,3.5c0,2.3,0.8,3.3,2.6,3.3c0.4,0,0.8-0.1,1.5-0.3
	l0-0.9l0-1.5l1.1-0.1l0,1.4l0.1,1.9c-1.1,0.4-1.9,0.5-2.7,0.5c-2.5,0-3.7-1.5-3.7-4.2c0-3,1.5-4.5,4-4.5
	C105.7,6.4,106.5,6.5,107.3,7"/>
<path d="M112.3,10.9c0.9-0.3,1.3-0.9,1.3-2c0-1.1-0.5-1.6-1.6-1.6l-1.1,0l0,3.5L112.3,10.9z M115.3,14.7l0,0.1
	c-0.4,0.1-0.7,0.2-1.1,0.3L114,15c-0.6-1-1.2-2.1-1.8-3.2h-1.4v0.5l0.1,2.7h-1.2l0.1-2.6l-0.1-6l2.6,0c1.6,0,2.5,0.9,2.5,2.5
	c0,1.2-0.6,2.1-1.6,2.7C113.8,12.6,114.5,13.7,115.3,14.7"/>
<path d="M120.1,8.3L120.1,8.3l-1.5,3.7l1.3,0l1.4,0L120.1,8.3z M118.4,5.9c1.1-0.4,2.2-0.9,3.4-1.4l0.1,0l0.2,0.7l0,0.1
	c-1.2,0.4-2.3,0.7-3.4,1.1l-0.1-0.1L118.4,5.9z M122.2,15l-0.2-0.8l-0.4-1.2l-1.8,0l-1.6,0l-0.4,1.1l-0.2,0.9h-1.1l2.9-7.8h1.3
	l2.6,7.8H122.2z"/>
<polygon points="126.6,10.3 127.9,10.4 129.2,10.3 129.3,10.4 129.2,11.3 127.8,11.3 126.6,11.3 126.5,12.3 126.6,15 125.4,15 
	125.5,12.4 125.4,6.5 129.9,6.5 129.9,6.6 129.9,7.5 128,7.4 126.6,7.4 "/>
<polygon points="133,15 131.8,15 131.9,12.4 131.8,6.5 133,6.5 132.9,12.3 "/>
<path d="M141.2,7L141,8.1l-0.1,0c-0.5-0.5-1.1-0.7-1.9-0.7c-1.4,0-2.3,1.1-2.3,3.4c0,2.3,0.9,3.4,2.3,3.4c0.7,0,1.4-0.3,2-0.8
	l0.1,0.1l-0.1,1.1c-0.7,0.4-1.3,0.6-2.1,0.6c-2.1,0-3.4-1.5-3.4-4.3c0-2.8,1.3-4.4,3.5-4.4C139.9,6.4,140.7,6.6,141.2,7"/>
<path d="M145.6,7.6L145.6,7.6l-1.4,4.2l1.3,0l1.3,0L145.6,7.6z M147.7,15l-0.2-0.9l-0.4-1.4l-1.7,0l-1.5,0l-0.4,1.3l-0.2,0.9h-1.1
	l2.8-8.6h1.3l2.6,8.6H147.7z"/>
<g>
</g>
<g>
</g>
<g>
</g>
<g>
</g>
<g>
</g>
<g>
</g>
</svg>
